Newaita/actions/symbolic/image-sharpen-symbolic.svg

<svg height="16" viewBox="0 0 16 16" width="16" xmlns="http://www.w3.org/2000/svg"><path d="m7.976562 1.109375c-.3125-.015625-.605468.144531-.761718.417969l-6.949219 12.035156c-.148437.257812-.148437.578125 0 .835938.148437.257812.425781.417968.722656.417968h13.898438c.300781 0 .574219-.160156.722656-.417968.152344-.257813.152344-.578126.003906-.835938l-6.949219-12.035156c-.144531-.246094-.402343-.40625-.6875-.417969zm-.039062 2.507813 5.5 9.527343h-11zm0 0" fill="#424242"/></svg>

<?xml version="1.0" encoding="UTF-8"?>
<svg xmlns="http://www.w3.org/2000/svg" xmlns:xlink="http://www.w3.org/1999/xlink" width="16px" height="16px" viewBox="0 0 16 16" version="1.1">
<g id="surface1">
<path style=" stroke:none;fill-rule:nonzero;fill:rgb(25.882354%,25.882354%,25.882354%);fill-opacity:1;" d="M 7.976562 1.109375 C 7.664062 1.09375 7.371094 1.253906 7.214844 1.527344 L 0.265625 13.5625 C 0.117188 13.820312 0.117188 14.140625 0.265625 14.398438 C 0.414062 14.65625 0.691406 14.816406 0.988281 14.816406 L 14.886719 14.816406 C 15.1875 14.816406 15.460938 14.65625 15.609375 14.398438 C 15.761719 14.140625 15.761719 13.820312 15.613281 13.5625 L 8.664062 1.527344 C 8.519531 1.28125 8.261719 1.121094 7.976562 1.109375 Z M 7.9375 3.617188 L 13.4375 13.144531 L 2.4375 13.144531 Z M 7.9375 3.617188 "/>
</g>
</svg>
